src/assets/icons/categories/icon-cat-health.svg

<svg xmlns="http://www.w3.org/2000/svg" width="32" height="32" viewBox="0 0 32 32">
  <g fill="none" fill-rule="evenodd">
    <circle cx="16" cy="16" r="16" fill="#F62C2C"/>
    <g fill="#FFFFFF" transform="translate(4 6)">
      <path d="M16.0418 17.3783C15.7848 17.8903 15.2708 18.2073 14.6998 18.2073 13.9498 18.1753 13.4278 17.7123 13.2578 17.1193L12.3168 13.8273 11.5418 15.3773C11.3058 15.8513 10.8378 16.1843 10.2138 16.2063 9.7048 16.2063 9.2438 15.9763 8.9518 15.5393L8.1278 14.3033 7.8988 14.6073C7.6188 14.9833 7.1708 15.2073 6.6998 15.1003L4.0628 15.1003C5.6228 17.8993 9.4138 21.3523 11.9238 23.0173 12.0078 23.0723 12.1038 23.1003 12.1998 23.1003 12.3088 23.1003 12.4158 23.0653 12.5058 22.9953 14.7038 21.3063 18.2978 17.7523 19.8738 15.1003L17.1268 15.1003 16.0418 17.3783zM2.323 12.1L5.95 12.1 7 10.807C7.279 10.432 7.733 10.207 8.214 10.207 8.723 10.222 9.18 10.471 9.448 10.875L10.013 11.724 11.358 9.036C11.614 8.525 12.128 8.206 12.7 8.206 13.453 8.24 13.974 8.706 14.142 9.294L15.108 12.57C15.388 12.273 15.778 12.1 16.2 12.1L21.732 12.1C22.435 10.962 23.2 8.746 23.2 6.781 23.2 2.465 20.387.207 17.607.207 15.544.207 13.271 1.466 12.2 4.229 11.145 1.51 8.93.271 6.92.271 3.165.271 1.2 3.844 1.2 7.372 1.2 9.219 1.777 11.156 2.323 12.1"/>
      <path d="M23.7,13.1 L16.2,13.1 C16.009,13.1 15.838,13.205 15.753,13.375 L14.828,15.334 L13.18,9.57 C13.124,9.369 12.952,9.215 12.678,9.206 C12.509,9.206 12.338,9.313 12.253,9.483 L10.137,13.712 L8.616,11.43 C8.525,11.293 8.373,11.212 8.199,11.207 C8.051,11.207 7.892,11.284 7.802,11.406 L6.45,13.1 L0.7,13.1 C0.424,13.1 0.2,13.324 0.2,13.6 C0.2,13.875 0.424,14.1 0.7,14.1 L6.7,14.1 C6.856,14.1 7.006,14.025 7.098,13.9 L8.177,12.573 L9.784,14.985 C9.896,15.152 10.052,15.212 10.248,15.204 C10.408,15.195 10.568,15.089 10.647,14.93 L12.572,11.08 L14.219,16.844 C14.274,17.038 14.446,17.198 14.706,17.207 C14.893,17.204 15.062,17.099 15.147,16.931 L16.509,14.1 L23.7,14.1 C23.975,14.1 24.2,13.875 24.2,13.6 C24.2,13.324 23.975,13.1 23.7,13.1"/>
    </g>
  </g>
</svg>

<svg xmlns="http://www.w3.org/2000/svg" viewBox="0 0 32 32"><g fill="none" fill-rule="evenodd"><circle cx="16" cy="16" r="16" fill="#F52D2D"/><g fill="#FFFFFF" transform="translate(4 6)"><path d="M16.04 17.38a1.5 1.5 0 0 1-1.34.83 1.51 1.51 0 0 1-1.44-1.1l-.94-3.28-.78 1.55a1.5 1.5 0 0 1-2.59.16l-.82-1.24-.23.3c-.28.38-.73.6-1.2.5H4.06c1.56 2.8 5.35 6.25 7.86 7.92a.5.5 0 0 0 .59-.02c2.2-1.7 5.79-5.25 7.36-7.9h-2.74l-1.09 2.28zM2.32 12.1h3.63L7 10.8c.28-.37.73-.6 1.21-.6.51.02.97.27 1.24.68l.56.84 1.35-2.68a1.5 1.5 0 0 1 1.34-.83c.75.03 1.27.5 1.44 1.08l.97 3.28c.28-.3.67-.47 1.09-.47h5.53a11.4 11.4 0 0 0 1.47-5.32c0-4.32-2.81-6.57-5.6-6.57-2.06 0-4.33 1.26-5.4 4.02C11.15 1.5 8.93.27 6.92.27 3.17.27 1.2 3.84 1.2 7.37c0 1.85.58 3.79 1.12 4.73"/><path d="M23.7 13.1h-7.5a.5.5 0 0 0-.45.28l-.92 1.95-1.65-5.76a.5.5 0 0 0-.5-.36.5.5 0 0 0-.43.27l-2.11 4.23-1.52-2.28a.5.5 0 0 0-.42-.22.5.5 0 0 0-.4.2L6.45 13.1H.7a.5.5 0 0 0 0 1h6a.5.5 0 0 0 .4-.2l1.08-1.33 1.6 2.41a.5.5 0 0 0 .47.22.5.5 0 0 0 .4-.27l1.92-3.85 1.65 5.76c.05.2.23.36.49.37a.5.5 0 0 0 .44-.28l1.36-2.83h7.19a.5.5 0 0 0 0-1"/></g></g></svg>
